assets/Bullet train/Flat/bullet_train_flat.svg

<svg width="32" height="32" viewBox="0 0 32 32" fill="none" xmlns="http://www.w3.org/2000/svg">
<path d="M29.981 7H19.851C17.2344 7 14.7381 8.09199 12.9585 10C12.9585 11 11.9047 12.4421 11.5 13.5L7.73699 16L6.00098 18L17.991 19L29.981 18V7Z" fill="#D3D3D3"/>
<path d="M29.99 18H6.00224L3.64115 22.16C2.10065 24.13 3.51111 27 6.01192 27H30V18H29.99Z" fill="#E6E6E6"/>
<path d="M6 18L2.6424 22.1492C1.0989 24.1236 2.5121 27 5.01778 27H6V22.9911V18Z" fill="#636363"/>
<path d="M7.73694 16H21.7855C23.6502 16 25.4063 15.11 26.5211 13.6L27.7642 11.92C28.3462 11.13 27.7839 10 26.8072 10H12.9585C12.8882 10.0754 12.819 10.1521 12.7509 10.23L9.88092 13.53L7.73694 16Z" fill="#26C9FC"/>
<path d="M28 11H12.0813L12.751 10.23C12.819 10.1521 12.8882 10.0754 12.9585 10H26.8488C27.4634 10 27.9122 10.46 28 11ZM13 27L14.2341 25.404C15.4066 23.8878 17.2372 23 19.1912 23H30V27H13Z" fill="#46A4FB"/>
<path d="M10.991 22H8.99097C8.44097 22 7.99097 21.55 7.99097 21C7.99097 20.45 8.44097 20 8.99097 20H10.991C11.541 20 11.991 20.45 11.991 21C11.991 21.55 11.541 22 10.991 22Z" fill="#FF6723"/>
<path d="M30.001 27H2.00098V30H30.001V27Z" fill="#321B41"/>
</svg>

<svg xmlns="http://www.w3.org/2000/svg" width="32" height="32" fill="none"><path fill="#D3D3D3" d="M29.981 7h-10.13a9.43 9.43 0 0 0-6.892 3c0 1-1.054 2.442-1.459 3.5L7.737 16l-1.736 2 11.99 1 11.99-1V7Z"/><path fill="#E6E6E6" d="M29.99 18H6.002l-2.36 4.16C2.1 24.13 3.511 27 6.011 27H30v-9h-.01Z"/><path fill="#636363" d="m6 18-3.358 4.15C1.1 24.123 2.512 27 5.018 27H6v-9Z"/><path fill="#26C9FC" d="M7.737 16h14.048c1.865 0 3.621-.89 4.736-2.4l1.243-1.68c.582-.79.02-1.92-.957-1.92H12.96c-.07.075-.14.152-.208.23l-2.87 3.3L7.737 16Z"/><path fill="#46A4FB" d="M28 11H12.081l.67-.77c.068-.078.137-.155.208-.23h13.89c.614 0 1.063.46 1.151 1ZM13 27l1.234-1.596C15.407 23.888 17.237 23 19.191 23H30v4H13Z"/><path fill="#FF6723" d="M10.991 22h-2c-.55 0-1-.45-1-1s.45-1 1-1h2c.55 0 1 .45 1 1s-.45 1-1 1Z"/><path fill="#321B41" d="M30.001 27h-28v3h28v-3Z"/></svg>
